frontend/src/assets/logo.svg

<svg width="72" height="48" viewBox="0 0 72 48" fill="none" xmlns="http://www.w3.org/2000/svg">
<g clip-path="url(#clip0_348_3923)">
<path d="M29 38C19 41 19 33 15 32M43 44V36.26C43.075 35.3063 42.9462 34.3476 42.622 33.4476C42.2979 32.5476 41.7859 31.7268 41.12 31.04C47.4 30.34 54 27.96 54 17.04C53.9995 14.2477 52.9254 11.5624 51 9.54C51.9117 7.09701 51.8472 4.3967 50.82 2C50.82 2 48.46 1.3 43 4.96C38.416 3.71764 33.584 3.71764 29 4.96C23.54 1.3 21.18 2 21.18 2C20.1528 4.3967 20.0883 7.09701 21 9.54C19.0603 11.5774 17.985 14.2869 18 17.1C18 27.94 24.6 30.32 30.88 31.1C30.222 31.7799 29.7145 32.5908 29.3906 33.4798C29.0667 34.3689 28.9336 35.3161 29 36.26V44" stroke="#1E1E1E" stroke-width="4" stroke-linecap="round" stroke-linejoin="round"/>
</g>
<g clip-path="url(#clip1_348_3923)">
<path d="M14.3125 16H21.75M34.2625 16H41.7M33 16C33 18.7614 30.7614 21 28 21C25.2386 21 23 18.7614 23 16C23 13.2386 25.2386 11 28 11C30.7614 11 33 13.2386 33 16Z" stroke="#1E1E1E" stroke-width="4" stroke-linecap="round" stroke-linejoin="round"/>
</g>
<g clip-path="url(#clip2_348_3923)">
<path d="M30.3125 16H37.75M50.2625 16H57.7M49 16C49 18.7614 46.7614 21 44 21C41.2386 21 39 18.7614 39 16C39 13.2386 41.2386 11 44 11C46.7614 11 49 13.2386 49 16Z" stroke="#1E1E1E" stroke-width="4" stroke-linecap="round" stroke-linejoin="round"/>
</g>
<path d="M53.5856 23.069C53.5238 23.044 53.4757 23.003 53.4412 22.9459C53.4241 22.8815 53.428 22.8184 53.453 22.7565L54.0449 21.2916C54.0699 21.2298 54.1084 21.1878 54.1605 21.1657C54.2299 21.1363 54.2956 21.134 54.3574 21.159L64.1483 25.1151C64.2101 25.1401 64.2496 25.1848 64.2667 25.2492C64.3012 25.3063 64.3059 25.3657 64.2809 25.4275L63.689 26.8924C63.6641 26.9543 63.6169 26.9999 63.5474 27.0294C63.4954 27.0515 63.4384 27.05 63.3766 27.0251L53.5856 23.069ZM52.0272 26.926C51.9654 26.9011 51.9172 26.86 51.8828 26.803C51.8657 26.7385 51.8696 26.6754 51.8946 26.6136L52.4865 25.1487C52.5115 25.0868 52.55 25.0449 52.602 25.0228C52.6715 24.9933 52.7371 24.9911 52.7989 25.016L62.5899 28.9721C62.6517 28.9971 62.6912 29.0418 62.7083 29.1062C62.7427 29.1633 62.7475 29.2227 62.7225 29.2846L62.1306 30.7495C62.1056 30.8113 62.0584 30.8569 61.989 30.8864C61.9369 30.9085 61.88 30.9071 61.8181 30.8821L52.0272 26.926Z" fill="black"/>
<path d="M18.264 23.01C18.3258 22.985 18.3739 22.944 18.4084 22.887C18.4255 22.8225 18.4216 22.7594 18.3966 22.6976L17.8047 21.2327C17.7797 21.1708 17.7412 21.1289 17.6891 21.1068C17.6197 21.0773 17.5541 21.0751 17.4922 21.1L7.70127 25.0561C7.63946 25.0811 7.6 25.1258 7.5829 25.1902C7.54843 25.2473 7.54369 25.3067 7.56866 25.3686L8.16058 26.8335C8.18555 26.8953 8.23276 26.9409 8.30218 26.9704C8.35426 26.9925 8.4112 26.9911 8.47301 26.9661L18.264 23.01ZM19.8224 26.8671C19.8842 26.8421 19.9324 26.8011 19.9668 26.744C19.984 26.6796 19.98 26.6164 19.955 26.5546L19.3631 25.0897C19.3382 25.0279 19.2996 24.9859 19.2476 24.9638C19.1781 24.9344 19.1125 24.9321 19.0507 24.9571L9.25973 28.9132C9.19792 28.9381 9.15846 28.9828 9.14135 29.0473C9.10689 29.1044 9.10214 29.1638 9.12712 29.2256L9.71903 30.6905C9.74401 30.7523 9.79121 30.798 9.86064 30.8275C9.91271 30.8496 9.96965 30.8481 10.0315 30.8231L19.8224 26.8671Z" fill="black"/>
<defs>
<clipPath id="clip0_348_3923">
<rect width="48" height="48" fill="white" transform="translate(11)"/>
</clipPath>
<clipPath id="clip1_348_3923">
<rect width="30" height="30" fill="white" transform="translate(13 1)"/>
</clipPath>
<clipPath id="clip2_348_3923">
<rect width="30" height="30" fill="white" transform="translate(29 1)"/>
</clipPath>
</defs>
</svg>

<svg xmlns="http://www.w3.org/2000/svg" width="72" height="48" fill="none"><g clip-path="url(#a)"><path stroke="#1E1E1E" stroke-linecap="round" stroke-linejoin="round" stroke-width="4" d="M29 38c-10 3-10-5-14-6m28 12v-7.74a6.74 6.74 0 0 0-1.88-5.22c6.28-.7 12.88-3.08 12.88-14a10.88 10.88 0 0 0-3-7.5A10.14 10.14 0 0 0 50.82 2S48.46 1.3 43 4.96a26.76 26.76 0 0 0-14 0C23.54 1.3 21.18 2 21.18 2A10.14 10.14 0 0 0 21 9.54a10.88 10.88 0 0 0-3 7.56c0 10.84 6.6 13.22 12.88 14A6.74 6.74 0 0 0 29 36.26V44"/></g><g clip-path="url(#b)"><path stroke="#1E1E1E" stroke-linecap="round" stroke-linejoin="round" stroke-width="4" d="M14.313 16h7.437m12.513 0H41.7M33 16a5 5 0 1 1-10 0 5 5 0 0 1 10 0"/></g><g clip-path="url(#c)"><path stroke="#1E1E1E" stroke-linecap="round" stroke-linejoin="round" stroke-width="4" d="M30.313 16h7.437m12.513 0H57.7M49 16a5 5 0 1 1-10 0 5 5 0 0 1 10 0"/></g><path fill="#000" d="M53.586 23.069a.3.3 0 0 1-.145-.123.3.3 0 0 1 .012-.19l.592-1.464a.22.22 0 0 1 .115-.126.25.25 0 0 1 .197-.007l9.791 3.956a.19.19 0 0 1 .119.134.19.19 0 0 1 .014.178l-.592 1.465a.25.25 0 0 1-.142.137.22.22 0 0 1-.17-.004zm-1.559 3.857a.3.3 0 0 1-.144-.123.3.3 0 0 1 .012-.19l.591-1.464a.22.22 0 0 1 .116-.126.25.25 0 0 1 .197-.007l9.79 3.956a.19.19 0 0 1 .12.134.19.19 0 0 1 .013.179l-.591 1.465a.25.25 0 0 1-.142.136.22.22 0 0 1-.17-.004zM18.264 23.01a.3.3 0 0 0 .144-.123.3.3 0 0 0-.011-.19l-.592-1.464a.22.22 0 0 0-.116-.126.25.25 0 0 0-.197-.007l-9.79 3.956a.19.19 0 0 0-.12.134.19.19 0 0 0-.013.179l.592 1.465a.25.25 0 0 0 .141.136q.079.034.171-.004zm1.558 3.857a.3.3 0 0 0 .145-.123.3.3 0 0 0-.012-.19l-.592-1.464a.22.22 0 0 0-.115-.126.25.25 0 0 0-.197-.007L9.26 28.913a.19.19 0 0 0-.119.134.19.19 0 0 0-.014.179l.592 1.465a.25.25 0 0 0 .142.137q.078.033.17-.005z"/><defs><clipPath id="a"><path fill="#fff" d="M11 0h48v48H11z"/></clipPath><clipPath id="b"><path fill="#fff" d="M13 1h30v30H13z"/></clipPath><clipPath id="c"><path fill="#fff" d="M29 1h30v30H29z"/></clipPath></defs></svg>
